X:1
T:Oh Dear Minny, What Shall I Do?
M:3/4
L:1/4
K:C
 C3/2- D/2 C| E- G A| c- e d| c- A G| c- A c| A2 a| a- g f| e- d c|\
 E- D C| E- G A| c- e d| c- A G| A- c A| G- E G| A- c E| D2 C| c g g|\
 g3/2- e/2 g| a g e| d2- c| c a a| a2 g| g f e| d2- c| c g g| g e g|\
 a g e| d2 c| A- c A| G- E G| A- c E| D2 C|
